X: 37896
T: South Shield Lasses, The
R: hornpipe
M: 4/4
K: Gmajor
|:(3DEF|GFGA GBdB|cBcd efge|dBGB dBGB|ABcA GFED|
GFGA GBdB|cBcd efge|dbgb ecAF|GFGA G2:|
|:^c2|d^cde dfaf|gfga bgdB|efge fgaf|gfe^d e^def|
gfgf gdBg|e^de2 fdcA|GBdB ecAF|GFGA G2:|

